X:1
T:Let the Gospel Light Shine Out
T:Let the Gospel Light Shine Out
T:Adam Geibel, 1901
T:Johnson Oatman, 1900
T:Public Domain Courtesy of the Cyber Hymnal™
T:Public Domain Courtesy of the Cyber Hymnal™
C:Adam Geibel, 1901
Z:Public Domain
Z:Courtesy of the Cyber Hymnal™
%%score ( 1 2 ) ( 3 4 )
L:1/8
Q:1/4=95
M:4/4
K:Ab
V:1 treble 
V:2 treble 
V:3 bass 
V:4 bass 
V:1
 [CE]>[CE] [=B,F]>[B,=D] [CE]2 [Ec]2 | [FB]>[FA] [FA]>[DF] [CE]4 | %2
w: 1.~Stand- ing like a light- house|on the shores of time,|
w: 2.~There are hu- man ship- wrecks|ly- ing all a- round,|
w: 3.~Do not let the bush- el|co- ver up your light;|
w: 4.~Try to live for Je- sus,|till this life is o’er,|
 [B,E]>[B,E] [B,F]>[EG] [EA]2 [Ec]2 | [=DB]>[Dc] [DB]>[Dc] [EB]4 | %4
w: Look- ing o’er the waves of|dark- ness, sin, and crime,|
w: O, what mor- al dark- ness|ev- ery- where is found;|
w: Keep your lamp in or- der,|trimmed and burn- ing bright;|
w: For a- long this path- way|you will pass no more;|
 [GB]>[GB] [GB]>[_Gc] [Fd]2 [Fd]2 | [FA]>[FA] [FA]>[_FB] [Ec]4 | c>B A>B c2 [A=d]2 | %7
w: O- pen up your win- dows,|there’s a work sub- lime,|Let the Gos- pel light shine|
w: Warn some o- ther ves- sels|off from dan- gerous ground,|Let the Gos- pel light shine|
w: Try to be a bless- ing,|bright- en up the night,|Let the Gos- pel light shine|
w: Till He bids you wel- come|on the o- ther shore,|Let the Gos- pel light shine|
 !fermata!e6 !fermata!z2 ||"^Refrain" [Ae]>[Af] [Ae]>[Ac] [EA]2 [DF]2 | A6 z2 | %10
w: out.|||
w: out.|Let the Gos- pel light shine|out;|
w: out.|||
w: out.|||
 [Ec]>[Fd] [Ec]>[DB] [CA]2 [Ec]2 | B6 z2 | [Ec]>[Ec] [Ec]>[Ec] [Ae]>[Ae] [Ac]>[EA] | %13
w: |||
w: Let the Gos- pel light shine|out;|Keep your lamp in or- der, trimmed and|
w: |||
w: |||
 [Ad]2 [Ad]2 !fermata![A=d]4 | [Ae]>c A>F E2 [GB]2 | [EA]6 z2 |] %16
w: |||
w: burn- ing bright—|Let the Gos- pel light shine|out.|
w: |||
w: |||
V:2
 x8 | x8 | x8 | x8 | x8 | x8 | c>B A>B c2 x2 | (G2 A2 B2) x2 || x8 | (E2 F2 E2) x2 | x8 | %11
 (E2 =D2 E2) x2 | x8 | x8 | x3/2 c/ A>F E2 x2 | x8 |] %16
V:3
 [A,,E,]>[A,,E,] [A,,=D,]>[A,,F,] [A,,E,]2 [A,,A,]2 | [D,A,]>[D,A,] [D,A,]>[F,A,] A,4 | %2
w: ~ ~ ~ ~ ~ ~|~ ~ ~ ~ ~|
 [E,G,]>[E,G,] [E,A,]>[D,B,] [C,A,]2 [A,,A,]2 | [B,,A,]>[B,,A,] [B,,A,]>[B,,A,] [E,G,]4 | %4
w: ~ ~ ~ ~ ~ ~|~ ~ ~ ~ ~|
 [E,B,]>[E,B,] [E,B,]>[E,B,] [B,,B,]2 [B,,B,]2 | [D,A,]>[D,A,] [D,A,]>[D,A,] [A,,A,]4 | %6
w: ~ ~ ~ ~ ~ ~|~ ~ ~ ~ ~|
 C>B, A,>B, C2 [B,,B,]2 | (!fermata!B,2 C2 !fermata!D2) z2 || %8
w: ~ ~ ~ ~ ~ ~|~ * *|
 [A,C]>[A,D] [A,C]>[A,E] [A,C]2 [D,A,]2 | [A,,C]2 [A,D]2 [A,C]2 z2 | %10
w: ~ ~ ~ ~ ~ ~|~ shine out,|
 [A,,A,]>[A,,A,] [A,,A,]>[A,,A,] [A,,E,]2 [A,,A,]2 | [E,G,]2 [B,,F,]2 [E,G,]2 z2 | %12
w: ~ ~ ~ ~ ~ ~|~ shine out|
 A,>A, A,>A, [_G,C]>[G,C] [G,E]>[G,C] | [F,D]2 [F,A,]2 !fermata![_F,=B,]4 | %14
w: ||
 [E,C]>C A,>F, E,2 [E,D]2 | [A,,C]6 z2 |] %16
w: ||
V:4
 x8 | x4 A,4 | x8 | x8 | x8 | x8 | C>B, A,>B, C2 x2 | E,6 x2 || x8 | x8 | x8 | x8 | %12
 A,>A, A,>A, x4 | x8 | x3/2 C/ A,>F, E,2 x2 | x8 |] %16

